X:1
T:The Orange And Blue
L:1/8
M:4/4
I:linebreak $
K:G
V:1 treble 
V:1
 d |: B<G G2 D<G G2 | B>cd>B G2 G2 | A2 A2 F<D AG | F>GA>F D2 D>d | B<G G2 D<G G2 |$ %6
 B>cd>B G2 B>c | d>Bc>A B>GA>G | F<DE>F G2 G || d |: B<d d2 B<dd>c | B>cd>B G2 G2 |$ %12
 F<A A2 F<DA>G | F>GA>F D2 D>d | B<d d2 B<dd>c | B>cd>B G2 B>c | d>Bc>A B>GA>G |$ F<DE>F G2 G || %18
